SVG_Azure_All/App Scale Up.svg

<?xml version="1.0" encoding="UTF-8" standalone="no"?>
<!-- Generated by Microsoft Visio, SVG Export App Scale Up.svg Page-1 -->

<svg
   xmlns:dc="http://purl.org/dc/elements/1.1/"
   xmlns:cc="http://creativecommons.org/ns#"
   xmlns:rdf="http://www.w3.org/1999/02/22-rdf-syntax-ns#"
   xmlns:svg="http://www.w3.org/2000/svg"
   xmlns="http://www.w3.org/2000/svg"
   xmlns:sodipodi="http://sodipodi.sourceforge.net/DTD/sodipodi-0.dtd"
   xmlns:inkscape="http://www.inkscape.org/namespaces/inkscape"
   width="0.78744191in"
   height="0.78743887in"
   viewBox="0 0 56.6958 56.695581"
   xml:space="preserve"
   class="st4"
   version="1.1"
   id="svg35"
   sodipodi:docname="App Scale Up.svg"
   style="font-size:12px;overflow:visible;color-interpolation-filters:sRGB;fill:none;fill-rule:evenodd;stroke-linecap:square;stroke-miterlimit:3"
   inkscape:version="0.92.5 (2060ec1f9f, 2020-04-08)"><metadata
   id="metadata39"><rdf:RDF><cc:Work
       rdf:about=""><dc:format>image/svg+xml</dc:format><dc:type
         rdf:resource="http://purl.org/dc/dcmitype/StillImage" /></cc:Work></rdf:RDF></metadata><sodipodi:namedview
   pagecolor="#ffffff"
   bordercolor="#666666"
   borderopacity="1"
   objecttolerance="10"
   gridtolerance="10"
   guidetolerance="10"
   inkscape:pageopacity="0"
   inkscape:pageshadow="2"
   inkscape:window-width="640"
   inkscape:window-height="480"
   id="namedview37"
   showgrid="false"
   inkscape:zoom="1.3841421"
   inkscape:cx="37.79508"
   inkscape:cy="37.799076"
   inkscape:window-x="0"
   inkscape:window-y="0"
   inkscape:window-maximized="0"
   inkscape:current-layer="svg35" />
	<style
   type="text/css"
   id="style2">
	<![CDATA[
		.st1 {fill:url(#grad0-6);stroke:none;stroke-linecap:butt;stroke-width:35.5922}
		.st2 {fill:#b3b3b3;stroke:none;stroke-linecap:butt;stroke-width:35.5922}
		.st3 {fill:#76bc2d;stroke:none;stroke-linecap:butt;stroke-width:35.5922}
		.st4 {fill:none;fill-rule:evenodd;font-size:12px;overflow:visible;stroke-linecap:square;stroke-miterlimit:3}
	]]>
	</style>

	<defs
   id="Patterns_And_Gradients">
		<linearGradient
   id="grad0-6"
   x1="-0.0018242668"
   y1="93.674256"
   x2="34.36664"
   y2="93.674256"
   gradientTransform="scale(1.0012617,0.9987399)"
   gradientUnits="userSpaceOnUse">
			<stop
   offset="0"
   stop-color="#6bb9f2"
   stop-opacity="1"
   id="stop4" />
			<stop
   offset="1"
   stop-color="#1b93eb"
   stop-opacity="1"
   id="stop6" />
		</linearGradient>
	</defs>
	<g
   id="g33"
   transform="translate(-35.5922,-35.592217)">
		<title
   id="title10">Page-1</title>
		<g
   id="group10152-1"
   transform="translate(35.5922,-35.5922)">
			<title
   id="title12">App Scale Up</title>
			<g
   id="group10153-2">
				<title
   id="title14">MsPortalFx.base.images-54</title>
				<g
   id="shape10154-3"
   transform="translate(22.2858,-22.3718)">
					<title
   id="title16">path4</title>
					<path
   d="M 34.41,111.48 V 94.18 A 0.625185,0.623622 -180 0 0 33.770606,93.556378 L 16.44,93.56 a 0.621633,0.620079 -180 0 0 -0.440471,1.06299 L 20.77,99.38 21.09,99.7 a 0.628737,0.627165 0 0 1 0,0.88228 L 0.18,121.44 a 0.628737,0.627165 -180 0 0 0,0.88228 L 5.57,127.7 a 0.628737,0.627165 -180 0 0 0.884495,0 L 27.37,106.84 a 0.625185,0.623622 0 0 1 0.884495,0 l 0.315505,0.31 4.77,4.77 a 0.621633,0.620079 -180 0 0 1.06566,-0.43937 z"
   class="st1"
   id="path18"
   inkscape:connector-curvature="0"
   style="fill:url(#grad0-6);stroke:none;stroke-width:35.59220123;stroke-linecap:butt" />
				</g>
				<g
   id="shape10155-7"
   transform="translate(7.40276,-8.26299)">
					<title
   id="title21">path6</title>
					<path
   d="m 36.55,109.13 v 12.66 a 1.45995,1.4563 0 0 1 -1.45,1.46 H 6.12 A 1.4564,1.45276 0 0 1 4.66,121.79 V 94.51 a 1.4564,1.45276 0 0 1 1.46,-1.46 h 14.52 a 0.799242,0.797244 -180 0 0 0.799242,-0.797244 L 21.44,89.21 A 0.799242,0.797244 -180 0 0 20.640758,88.412756 L 1.46,88.42 A 1.45995,1.4563 -180 0 0 0,89.87 v 36.55 a 1.4564,1.45276 -180 0 0 1.46,1.46 h 38.28 a 1.4564,1.45276 -180 0 0 1.46,-1.46 v -17.29 a 0.799242,0.797244 -180 0 0 -0.802794,-0.79724 L 37.35,108.33 a 0.799242,0.797244 -180 0 0 -0.799242,0.79724 z"
   class="st2"
   id="path23"
   inkscape:connector-curvature="0"
   style="fill:#b3b3b3;stroke:none;stroke-width:35.59220123;stroke-linecap:butt" />
				</g>
				<g
   id="shape10156-9">
					<title
   id="title26">path8</title>
					<path
   d="m 52.14,124.23 h 3.65 v 3.65 h -3.65 z m -3.73,3.65 h -3.72 v -3.65 h 3.73 z m -7.46,0 h -3.72 v -3.65 h 3.72 z m -7.46,0 h -3.72 v -3.65 h 3.73 z m -7.46,0 h -3.72 v -3.65 h 3.72 z m -7.46,0 h -3.72 v -3.65 h 3.73 z m -7.46,0 H 7.39 v -3.65 h 3.72 z M 0,124.23 h 3.66 v 3.65 H 0 Z m 3.66,-3.72 H 0 v -3.72 h 3.66 z m 0,-7.44 H 0 v -3.72 h 3.66 z m 0,-7.44 H 0 v -3.72 h 3.66 z m 0,-7.45 H 0 v -3.71 h 3.66 z m 0,-7.44 H 0 v -3.71 h 3.66 z m 0,-7.44 H 0 V 79.59 H 3.66 Z M 0,72.23 h 3.66 v 3.65 H 0 Z m 26.03,3.65 h -3.72 v -3.65 h 3.72 z m -7.46,0 h -3.72 v -3.65 h 3.73 z m -7.46,0 H 7.39 v -3.65 h 3.72 z m 44.68,44.63 h -3.64 v -3.72 h 3.65 z m 0,-7.44 h -3.64 v -3.72 h 3.65 z m 0,-7.44 h -3.64 v -3.72 h 3.65 z"
   class="st3"
   id="path28"
   inkscape:connector-curvature="0"
   style="fill:#76bc2d;stroke:none;stroke-width:35.59220123;stroke-linecap:butt" />
				</g>
			</g>
		</g>
	</g>
</svg>

<?xml version="1.0" encoding="UTF-8" standalone="no"?>
<!DOCTYPE svg PUBLIC "-//W3C//DTD SVG 1.1//EN" "http://www.w3.org/Graphics/SVG/1.1/DTD/svg11.dtd">
<!-- Generated by Microsoft Visio, SVG Export App Scale Up.svg Page-1 -->
<svg xmlns="http://www.w3.org/2000/svg" xmlns:xlink="http://www.w3.org/1999/xlink" xmlns:ev="http://www.w3.org/2001/xml-events"
		width="1.77607in" height="1.77607in" viewBox="0 0 127.877 127.877" xml:space="preserve" color-interpolation-filters="sRGB"
		class="st4">
	<style type="text/css">
	<![CDATA[
		.st1 {fill:url(#grad0-6);stroke:none;stroke-linecap:butt;stroke-width:35.5922}
		.st2 {fill:#b3b3b3;stroke:none;stroke-linecap:butt;stroke-width:35.5922}
		.st3 {fill:#76bc2d;stroke:none;stroke-linecap:butt;stroke-width:35.5922}
		.st4 {fill:none;fill-rule:evenodd;font-size:12px;overflow:visible;stroke-linecap:square;stroke-miterlimit:3}
	]]>
	</style>

	<defs id="Patterns_And_Gradients">
		<linearGradient id="grad0-6" x1="0" y1="0" x2="1" y2="0" gradientTransform="rotate(69.776807372655 0.5 0.5)">
			<stop offset="0" stop-color="#6bb9f2" stop-opacity="1"/>
			<stop offset="1" stop-color="#1b93eb" stop-opacity="1"/>
		</linearGradient>
	</defs>
	<g>
		<title>Page-1</title>
		<g id="group9927-1" transform="translate(35.5922,-35.5922)">
			<title>App Scale Up</title>
			<g id="group9928-2">
				<title>MsPortalFx.base.images-54</title>
				<g id="shape9929-3" transform="translate(22.2858,-22.3718)">
					<title>path4</title>
					<path d="M34.41 111.48 L34.41 94.18 a0.625185 0.623622 -180 0 0 -0.639394 -0.623622 L16.44 93.56 a0.621633 0.620079
								 -180 0 0 -0.440471 1.06299 L20.77 99.38 L21.09 99.7 a0.628737 0.627165 0 0 1 -7.4607E-14 0.882283
								 L0.18 121.44 a0.628737 0.627165 -180 0 0 -5.16254E-15 0.882283 L5.57 127.7 a0.628737 0.627165 -180
								 0 0 0.884495 0 L27.37 106.84 a0.625185 0.623622 0 0 1 0.884495 -1.13687E-13 L28.57 107.15 L33.34
								 111.92 a0.621633 0.620079 -180 0 0 1.06566 -0.43937 Z" class="st1"/>
				</g>
				<g id="shape9930-7" transform="translate(7.40276,-8.26299)">
					<title>path6</title>
					<path d="M36.55 109.13 L36.55 121.79 A1.45995 1.4563 0 0 1 35.1 123.25 L6.12 123.25 A1.4564 1.45276 0 0 1 4.66
								 121.79 L4.66 94.51 A1.4564 1.45276 0 0 1 6.12 93.05 L20.64 93.05 a0.799242 0.797244 -180 0 0 0.799242
								 -0.797244 L21.44 89.21 a0.799242 0.797244 -180 0 0 -0.799242 -0.797244 L1.46 88.42 A1.45995 1.4563
								 -180 0 0 0 89.87 L0 126.42 A1.4564 1.45276 -180 0 0 1.46 127.88 L39.74 127.88 A1.4564 1.45276 -180
								 0 0 41.2 126.42 L41.2 109.13 a0.799242 0.797244 -180 0 0 -0.802794 -0.797244 L37.35 108.33 a0.799242
								 0.797244 -180 0 0 -0.799242 0.797244 Z" class="st2"/>
				</g>
				<g id="shape9931-9">
					<title>path8</title>
					<path d="M52.14 124.23 L55.79 124.23 L55.79 127.88 L52.14 127.88 L52.14 124.23 ZM48.41 127.88 L44.69 127.88 L44.69
								 124.23 L48.42 124.23 L48.41 127.88 ZM40.95 127.88 L37.23 127.88 L37.23 124.23 L40.95 124.23 L40.95
								 127.88 ZM33.49 127.88 L29.77 127.88 L29.77 124.23 L33.5 124.23 L33.49 127.88 ZM26.03 127.88 L22.31
								 127.88 L22.31 124.23 L26.03 124.23 L26.03 127.88 ZM18.57 127.88 L14.85 127.88 L14.85 124.23 L18.58
								 124.23 L18.57 127.88 ZM11.11 127.88 L7.39 127.88 L7.39 124.23 L11.11 124.23 L11.11 127.88 ZM0 124.23
								 L3.66 124.23 L3.66 127.88 L0 127.88 L0 124.23 ZM3.66 120.51 L0 120.51 L0 116.79 L3.66 116.79 L3.66
								 120.51 ZM3.66 113.07 L0 113.07 L0 109.35 L3.66 109.35 L3.66 113.07 ZM3.66 105.63 L0 105.63 L0 101.91
								 L3.66 101.91 L3.66 105.63 ZM3.66 98.18 L0 98.18 L0 94.47 L3.66 94.47 L3.66 98.18 ZM3.66 90.74 L0
								 90.74 L0 87.03 L3.66 87.03 L3.66 90.74 ZM3.66 83.3 L0 83.3 L0 79.59 L3.66 79.59 L3.66 83.3 ZM0 72.23
								 L3.66 72.23 L3.66 75.88 L0 75.88 L0 72.23 ZM26.03 75.88 L22.31 75.88 L22.31 72.23 L26.03 72.23 L26.03
								 75.88 ZM18.57 75.88 L14.85 75.88 L14.85 72.23 L18.58 72.23 L18.57 75.88 ZM11.11 75.88 L7.39 75.88
								 L7.39 72.23 L11.11 72.23 L11.11 75.88 ZM55.79 120.51 L52.15 120.51 L52.15 116.79 L55.8 116.79 L55.79
								 120.51 ZM55.79 113.07 L52.15 113.07 L52.15 109.35 L55.8 109.35 L55.79 113.07 ZM55.79 105.63 L52.15
								 105.63 L52.15 101.91 L55.8 101.91 L55.79 105.63 Z" class="st3"/>
				</g>
			</g>
		</g>
	</g>
</svg>
